X:1
T:Title
%%score { ( 1 3 ) | ( 2 4 ) }
L:1/8
M:4/4
K:E
V:1 treble nm="Grand Piano"
V:3 treble 
V:2 bass 
V:4 bass 
V:1
 z4 z2[Q:1/4=116] [EG]>[FA] | [GB]2 [GB]2 [GB]2 [Ac]2 | [GB]6 [FA]>[EG] | [DF]2 [DF]2 [EG]2 [FA]2 | %4
 [EG]6 [EG]>[FA] | [GB]2 [GB]2 [GB]2 [Ac]2 | [GB]6 G>G | F2 B2 d2 c2 |[M:3/4] [B,DB]6 | %9
[M:1/4] F>G |[M:4/4] A6 z2 | G4 z4 | [FA]2 [FA]2 [FA]2 [EG]F | G6 G>A | B6 z2 |[M:9/8] e6- e z z | %16
[M:4/4] .[EGB]2 [EGB]>[CFA] [B,EG]2 [A,DF]2 |[M:3/4] [G,E]6 |] %18
V:2
 z4 z2 [E,B,]>[E,B,] | [E,B,]2 [E,B,]2 [E,E]2 [E,E]2 | [E,E]6 [D,B,]>[E,B,] | %3
 [B,,B,]2 [B,,B,]2 [B,,B,]2 [B,,B,]2 | [E,B,]6 [E,B,]>[E,B,] | [E,B,]2 [E,B,]2 [E,E]2 [E,E]2 | %6
 [E,E]6 [E,B,E]>[E,B,E] | [F,B,D]2 [F,B,D]2 [F,B,F]2 [F,^A,E]2 |[M:3/4] B,,6 | %9
[M:1/4][K:treble] D>E |[M:4/4] F6[K:bass] z2 | E4 z4 | [B,,B,]2 [B,,B,]2 [B,,B,]2 z D | %13
 [E,B,E]6[K:treble] E>F | G6[K:bass][K:treble] z2 |[M:9/8] G2[K:bass] E,- E,/E,/ E,2- E,A,,>A,, | %16
[M:4/4] z D B,,>B,, B,,2 B,,2 |[M:3/4] E,6 |] %18
V:3
 x8 | x8 | x8 | x8 | x8 | x8 | x8 | x8 |[M:3/4] x6 |[M:1/4] x2 |[M:4/4] z2 B,>B, B,2 G>F | %11
 z2 B,>B, [GB]2 [DF]>[EG] | x8 | x8 | z2 E>E E2 c>d | %15
[M:9/8] z2 [CA]- [CA]/[A,F]/ [B,G]2- [B,G][EBd]>[EAc] |[M:4/4] x8 |[M:3/4] x6 |] %18
V:4
 x8 | x8 | x8 | x8 | x8 | x8 | x8 | x8 |[M:3/4] x6 |[M:1/4][K:treble] x2 | %10
[M:4/4] z2[K:bass] B,,>B,, B,,2 E>D | z2 E,>E, [E,B,]2 [B,,B,]>[B,,B,] | z4 z2 [B,,B,]2 | %13
 x6[K:treble] x2 | z2[K:bass] E,>E, E,2[K:treble] A>F |[M:9/8] x2[K:bass] x7 |[M:4/4] B,,2 z2 z4 | %17
[M:3/4] x6 |] %18

